Papirus/64x64/apps/io.github.seadve.Mousai.svg

<?xml version="1.0" encoding="UTF-8" standalone="no"?>
<svg
   id="_图层_1"
   version="1.1"
   viewBox="0 0 64 64" width="64" height="64"
   sodipodi:docname="io.github.seadve.Mousai.svg"
   xml:space="preserve"
   inkscape:version="1.4 (e7c3feb100, 2024-10-09)"
   xmlns:inkscape="http://www.inkscape.org/namespaces/inkscape"
   xmlns:sodipodi="http://sodipodi.sourceforge.net/DTD/sodipodi-0.dtd"
   xmlns:xlink="http://www.w3.org/1999/xlink"
   xmlns="http://www.w3.org/2000/svg"
   xmlns:svg="http://www.w3.org/2000/svg"><sodipodi:namedview
     id="namedview26"
     pagecolor="#505050"
     bordercolor="#eeeeee"
     borderopacity="1"
     inkscape:showpageshadow="0"
     inkscape:pageopacity="0"
     inkscape:pagecheckerboard="0"
     inkscape:deskcolor="#505050"
     inkscape:zoom="7.5572037"
     inkscape:cx="32.15475"
     inkscape:cy="32.15475"
     inkscape:window-width="1920"
     inkscape:window-height="939"
     inkscape:window-x="0"
     inkscape:window-y="34"
     inkscape:window-maximized="1"
     inkscape:current-layer="g29" /><!-- Generator: Adobe Illustrator 29.0.1, SVG Export Plug-In . SVG Version: 2.1.0 Build 192)  --><defs
     id="defs6"><style
       id="style1">
      .st0 {
        fill-opacity: .5;
      }

      .st0, .st1, .st2, .st3, .st4, .st5, .st6, .st7 {
        fill: #fff;
      }

      .st8 {
        fill: #133c9a;
      }

      .st2, .st9 {
        display: none;
      }

      .st3 {
        fill-opacity: .2;
      }

      .st4 {
        fill-opacity: .9;
      }

      .st10 {
        fill: #3370ff;
      }

      .st11 {
        fill: url(#_未命名的渐变_3);
      }

      .st12 {
        fill: url(#_未命名的渐变);
      }

      .st5 {
        fill-opacity: .3;
      }

      .st6 {
        fill-opacity: 0;
      }

      .st7 {
        fill-opacity: .7;
      }

      .st13 {
        fill: #00d6b9;
      }

      .st14 {
        fill: url(#_未命名的渐变_2);
      }
    </style><radialGradient
       id="_未命名的渐变"
       data-name="未命名的渐变"
       cx="123.9"
       cy="-40.2"
       fx="123.9"
       fy="-40.2"
       r="59.4"
       gradientTransform="translate(-26.8 25.5) scale(.6 -.7)"
       gradientUnits="userSpaceOnUse"><stop
         offset="0"
         stop-color="#db202e"
         id="stop1" /><stop
         offset="1"
         stop-color="#e01b24"
         id="stop2" /></radialGradient><radialGradient
       id="_未命名的渐变_2"
       data-name="未命名的渐变 2"
       cx="67.6"
       cy="26.8"
       fx="67.6"
       fy="26.8"
       r="105.2"
       gradientTransform="translate(-26.6 25.3) scale(.6 -.7)"
       gradientUnits="userSpaceOnUse"><stop
         offset="0"
         stop-color="#ffb648"
         id="stop3" /><stop
         offset="1"
         stop-color="#ff7800"
         stop-opacity="0"
         id="stop4" /></radialGradient><radialGradient
       id="_未命名的渐变_3"
       data-name="未命名的渐变 3"
       cx="61.7"
       cy="18.6"
       fx="61.7"
       fy="18.6"
       r="68"
       gradientTransform="translate(-26.8 25.8) scale(.6 -.7)"
       gradientUnits="userSpaceOnUse"><stop
         offset="0"
         stop-color="#c64600"
         id="stop5" /><stop
         offset="1"
         stop-color="#a51d2d"
         id="stop6" /></radialGradient><linearGradient
       id="a"><stop
         offset="0"
         stop-color="#fff"
         id="stop1-3" /><stop
         offset="1"
         stop-color="#fff"
         stop-opacity="0"
         id="stop2-6" /></linearGradient><linearGradient
       gradientTransform="rotate(-90,110.91,115.434)"
       gradientUnits="userSpaceOnUse"
       xlink:href="#a"
       id="b"
       y2="24.145"
       x2="108.974"
       y1="16.246"
       x1="108.118" /><linearGradient
       gradientTransform="rotate(90,135.136,85.779)"
       gradientUnits="userSpaceOnUse"
       xlink:href="#a"
       id="c"
       y2="24.145"
       x2="108.974"
       y1="16.246"
       x1="108.118" /><linearGradient
       gradientUnits="userSpaceOnUse"
       xlink:href="#a"
       id="d"
       y2="24.145"
       x2="108.974"
       y1="16.246"
       x1="108.118" /><linearGradient
       gradientTransform="rotate(180,108.012,88.805)"
       gradientUnits="userSpaceOnUse"
       xlink:href="#a"
       id="e"
       y2="24.145"
       x2="108.974"
       y1="16.246"
       x1="108.118" /></defs><path
     class="st1"
     d="M47.5,64.1H13.8c-7.6,0-13.8-6.3-13.8-13.8V13.7C0,6.2,6.2,0,13.7,0h36.6c7.5,0,13.7,6.2,13.7,13.7v36.6c0,7.5-6.2,13.7-13.7,13.7h-2.9.1Z"
     id="path6"
     style="fill:#ff90b8;fill-opacity:1" /><g
     id="g29"
     transform="matrix(1.1417758,0,0,1.136967,-4.5368255,-4.4882941)"><path
       style="fill:#f9548f;stroke-width:1.13669"
       d="M 52.619866,4.7491321 6.6567834,55.493874 C 10.32187,61.468695 14.31907,59.183442 23.240824,60.363858 L 59.996185,19.022434 C 60.156312,15.421679 60.337468,8.5241321 52.619866,4.7491321 Z"
       id="path2-2"
       sodipodi:nodetypes="ccccc" /><path
       style="fill:#9182d7;stroke-width:1.05351"
       d="M 38.205248,3.8210593 3.8742471,41.556236 C 4.0842886,49.026964 3.4784566,53.199068 8.4903019,57.703701 L 53.777872,5.7846141 C 49.35707,2.5477676 43.970573,4.3344686 38.205248,3.8210593 Z"
       id="path3-9"
       sodipodi:nodetypes="ccccc" /><path
       style="fill:#7767c0"
       d="M 4.2300234,15.760915 C 3.8769461,25.041091 3.9996549,25.265448 4,32 4.014587,34.902663 3.4373994,38.600091 4.33782,41.359604 L 38.465209,4.2865928 C 36.531272,3.8672896 17.985603,4.119718 16.006736,4.1163834 7.0727027,4.1160229 3.7540386,11.13458 4.2300234,15.760915 Z"
       id="path4-1"
       sodipodi:nodetypes="cccccc" /><path
       style="opacity:0.2"
       d="m 25,19 v 5 h 0.02344 C 25.009582,24.196825 25,24.39562 25,24.599609 v 7.986329 A 8,8 0 0 0 22,32 a 8,8 0 0 0 -8,8 8,8 0 0 0 8,8 8,8 0 0 0 8,-8 8,8 0 0 0 -0.04102,-0.796875 C 29.983803,38.942096 30,38.6749 30,38.400391 V 24.599609 C 30,24.39562 29.990419,24.196825 29.976562,24 H 43.023438 C 43.009582,24.196825 43,24.39562 43,24.599609 v 7.986329 A 8,8 0 0 0 40,32 a 8,8 0 0 0 -8,8 8,8 0 0 0 8,8 8,8 0 0 0 8,-8 8,8 0 0 0 -0.04102,-0.796875 C 47.983803,38.942096 48,38.6749 48,38.400391 V 24.599609 C 48,24.39562 47.990418,24.196825 47.976562,24 H 48 v -5 z m -3,17 a 4,4 0 0 1 4,4 4,4 0 0 1 -4,4 4,4 0 0 1 -4,-4 4,4 0 0 1 4,-4 z m 18,0 a 4,4 0 0 1 4,4 4,4 0 0 1 -4,4 4,4 0 0 1 -4,-4 4,4 0 0 1 4,-4 z"
       id="path6-7" /><path
       style="fill:#ffffff"
       d="m 25,18 v 5 h 0.02344 C 25.009582,23.196825 25,23.39562 25,23.599609 v 7.986329 A 8,8 0 0 0 22,31 a 8,8 0 0 0 -8,8 8,8 0 0 0 8,8 8,8 0 0 0 8,-8 8,8 0 0 0 -0.04102,-0.796875 C 29.983803,37.942096 30,37.6749 30,37.400391 V 23.599609 C 30,23.39562 29.990419,23.196825 29.976562,23 H 43.023438 C 43.009582,23.196825 43,23.39562 43,23.599609 v 7.986329 A 8,8 0 0 0 40,31 a 8,8 0 0 0 -8,8 8,8 0 0 0 8,8 8,8 0 0 0 8,-8 8,8 0 0 0 -0.04102,-0.796875 C 47.983803,37.942096 48,37.6749 48,37.400391 V 23.599609 C 48,23.39562 47.990418,23.196825 47.976562,23 H 48 v -5 z m -3,17 a 4,4 0 0 1 4,4 4,4 0 0 1 -4,4 4,4 0 0 1 -4,-4 4,4 0 0 1 4,-4 z m 18,0 a 4,4 0 0 1 4,4 4,4 0 0 1 -4,4 4,4 0 0 1 -4,-4 4,4 0 0 1 4,-4 z"
       id="path7" /></g></svg>

<svg xmlns="http://www.w3.org/2000/svg" width="64" height="64" version="1.1">
 <circle style="opacity:0.2" cx="32" cy="33" r="28"/>
 <path style="fill:#ff90b8" d="M 58.605466,23.475585 26.162109,59.316408 A 28,28 0 0 0 32,60 28,28 0 0 0 60,32 28,28 0 0 0 58.605466,23.475585 Z"/>
 <path style="fill:#f9548f" d="M 50.764648,11.266602 13.262697,52.699216 a 28,28 0 0 0 12.899412,6.617192 L 58.605466,23.475585 A 28,28 0 0 0 50.764648,11.266602 Z"/>
 <path style="fill:#9182d7" d="M 37.885743,4.635743 5.380859,40.54492 a 28,28 0 0 0 7.881838,12.154296 L 50.764648,11.266602 A 28,28 0 0 0 37.885743,4.635743 Z"/>
 <path style="fill:#7767c0" d="M 10.835937,13.666014 A 28,28 0 0 0 4,32 28,28 0 0 0 5.380859,40.54492 L 37.885743,4.635743 A 28,28 0 0 0 32,4 28,28 0 0 0 10.835937,13.666014 Z"/>
 <path style="fill:#ffffff;opacity:0.2" d="M 32 4 A 28 28 0 0 0 4 32 A 28 28 0 0 0 4.0214844 32.585938 A 28 28 0 0 1 32 5 A 28 28 0 0 1 59.978516 32.414062 A 28 28 0 0 0 60 32 A 28 28 0 0 0 32 4 z"/>
 <path style="opacity:0.2" d="m 25,19 v 5 h 0.02344 C 25.009582,24.196825 25,24.39562 25,24.599609 v 7.986329 A 8,8 0 0 0 22,32 a 8,8 0 0 0 -8,8 8,8 0 0 0 8,8 8,8 0 0 0 8,-8 8,8 0 0 0 -0.04102,-0.796875 C 29.983803,38.942096 30,38.6749 30,38.400391 V 24.599609 C 30,24.39562 29.990419,24.196825 29.976562,24 H 43.023438 C 43.009582,24.196825 43,24.39562 43,24.599609 v 7.986329 A 8,8 0 0 0 40,32 a 8,8 0 0 0 -8,8 8,8 0 0 0 8,8 8,8 0 0 0 8,-8 8,8 0 0 0 -0.04102,-0.796875 C 47.983803,38.942096 48,38.6749 48,38.400391 V 24.599609 C 48,24.39562 47.990418,24.196825 47.976562,24 H 48 v -5 z m -3,17 a 4,4 0 0 1 4,4 4,4 0 0 1 -4,4 4,4 0 0 1 -4,-4 4,4 0 0 1 4,-4 z m 18,0 a 4,4 0 0 1 4,4 4,4 0 0 1 -4,4 4,4 0 0 1 -4,-4 4,4 0 0 1 4,-4 z"/>
 <path style="fill:#ffffff" d="M 25 18 L 25 23 L 25.023438 23 C 25.009582 23.196825 25 23.39562 25 23.599609 L 25 31.585938 A 8 8 0 0 0 22 31 A 8 8 0 0 0 14 39 A 8 8 0 0 0 22 47 A 8 8 0 0 0 30 39 A 8 8 0 0 0 29.958984 38.203125 C 29.983803 37.942096 30 37.6749 30 37.400391 L 30 23.599609 C 30 23.39562 29.990419 23.196825 29.976562 23 L 43.023438 23 C 43.009582 23.196825 43 23.39562 43 23.599609 L 43 31.585938 A 8 8 0 0 0 40 31 A 8 8 0 0 0 32 39 A 8 8 0 0 0 40 47 A 8 8 0 0 0 48 39 A 8 8 0 0 0 47.958984 38.203125 C 47.983803 37.942096 48 37.6749 48 37.400391 L 48 23.599609 C 48 23.39562 47.990418 23.196825 47.976562 23 L 48 23 L 48 18 L 25 18 z M 22 35 A 4 4 0 0 1 26 39 A 4 4 0 0 1 22 43 A 4 4 0 0 1 18 39 A 4 4 0 0 1 22 35 z M 40 35 A 4 4 0 0 1 44 39 A 4 4 0 0 1 40 43 A 4 4 0 0 1 36 39 A 4 4 0 0 1 40 35 z"/>
</svg>
